src/assets/img/emotes/crazy.svg

<svg xmlns:xlink="http://www.w3.org/1999/xlink" height="23.5" width="23.5" xmlns="http://www.w3.org/2000/svg"><g transform="translate(40.05 13)"><use height="23.45" transform="translate(-40 -13)" width="23.45" xlink:href="#a"/><use height="14.4" transform="translate(-34.65 -8.5)" width="12.95" xlink:href="#b"/></g><defs><path d="M-28.15 5.9q-2.65 0-4.55-2.5-1.4-1.75-1.85-3.55 6.85.85 12.7-.2-.35 2-1.75 3.75-1.9 2.5-4.55 2.5M-31.5-8.5q1.25 0 2.2.9.9.95.9 2.3 0 1.3-.9 2.25-.95.9-2.2.9-1.35 0-2.25-.9-.9-.95-.9-2.25 0-1.35.9-2.3.9-.9 2.25-.9m-.6 1.95q-.25-.3-.55-.25l-.5.25-.25.65.25.65.5.3.55-.3q.25-.25.25-.65l-.25-.65m9.5-.75q.9 1.1.9 2.7t-.9 2.75q-.95 1.1-2.25 1.1t-2.2-1.1q-.9-1.15-.9-2.75t.9-2.7q.9-1.15 2.2-1.15 1.3 0 2.25 1.15m-1.6 1.55q-.45-.05-.75.35l-.3 1.05.3 1.05.75.4.75-.4q.3-.45.35-1.05-.05-.65-.35-1.05-.35-.4-.75-.35" transform="translate(34.65 8.5)" id="b" fill="#fff" fill-rule="evenodd"/><use height="23.45" width="23.45" xlink:href="#c" id="a"/><g id="c"><path d="m-3.35-10.25 3.4-.5 2.2.2q2.2.45 4 1.8L7.6-7.6q3.15 3.2 3.15 7.6 0 4.45-3.15 7.6v.05Q4.4 10.7.05 10.7l-2.4-.25q-2.3-.5-4.2-1.9l-1-.9-.05-.05q-3.15-3.15-3.1-7.55V-.1q-.05-2.95 1.45-5.35L-7.6-7.6l.7-.65 1.85-1.25 1.7-.75M1.9 1.85h-.05v.05l.05-.05" fill="#f39" fill-rule="evenodd" transform="translate(11.7 11.75)"/><path d="m4.1 19.35.05.05 1 .9q1.9 1.4 4.2 1.9M17.95 3q-1.8-1.35-4-1.8" fill="none" stroke="#f39" stroke-linecap="round" stroke-linejoin="round" stroke-width="2"/><path d="m9.35 22.2 2.4.25q4.35 0 7.55-3.05v-.05q3.15-3.15 3.15-7.6 0-4.4-3.15-7.6L17.95 3" fill="none" stroke="#c06" stroke-linecap="round" stroke-linejoin="round" stroke-width="2"/><path d="m13.95 1.2-2.2-.2-3.4.5m-1.7.75L4.8 3.5M2.45 6.3Q.95 8.7 1 11.65v.15q-.05 4.4 3.1 7.55" fill="none" stroke="#f9c" stroke-linecap="round" stroke-linejoin="round" stroke-width="2"/><path d="m8.35 1.5-1.7.75M4.8 3.5l-.7.65L2.45 6.3" fill="none" stroke="#fff" stroke-linecap="round" stroke-linejoin="round" stroke-width="2"/></g></defs></svg>

<?xml version="1.0" encoding="UTF-8" standalone="no"?>
<svg xmlns:xlink="http://www.w3.org/1999/xlink" height="23.5px" width="23.5px" xmlns="http://www.w3.org/2000/svg">
  <g transform="matrix(1.0, 0.0, 0.0, 1.0, 40.05, 13.0)">
    <use height="23.45" transform="matrix(1.0, 0.0, 0.0, 1.0, -40.0, -13.0)" width="23.45" xlink:href="#sprite0"/>
    <use height="14.4" transform="matrix(1.0, 0.0, 0.0, 1.0, -34.65, -8.5)" width="12.95" xlink:href="#shape1"/>
  </g>
  <defs>
    <g id="sprite0" transform="matrix(1.0, 0.0, 0.0, 1.0, 11.7, 11.75)">
      <use height="23.45" transform="matrix(1.0, 0.0, 0.0, 1.0, -11.7, -11.75)" width="23.45" xlink:href="#shape0"/>
    </g>
    <g id="shape0" transform="matrix(1.0, 0.0, 0.0, 1.0, 11.7, 11.75)">
      <path d="M-3.35 -10.25 L0.05 -10.75 2.25 -10.55 Q4.45 -10.1 6.25 -8.75 L7.6 -7.6 Q10.75 -4.4 10.75 0.0 10.75 4.45 7.6 7.6 L7.6 7.65 Q4.4 10.7 0.05 10.7 L-2.35 10.45 Q-4.65 9.95 -6.55 8.55 L-7.55 7.65 -7.6 7.6 Q-10.75 4.45 -10.7 0.05 L-10.7 -0.1 Q-10.75 -3.05 -9.25 -5.45 L-7.6 -7.6 -6.9 -8.25 -5.05 -9.5 -3.35 -10.25 M1.9 1.85 L1.85 1.85 1.85 1.9 1.9 1.85" fill="#ff3399" fill-rule="evenodd" stroke="none"/>
      <path d="M-7.6 7.6 L-7.55 7.65 -6.55 8.55 Q-4.65 9.95 -2.35 10.45 M6.25 -8.75 Q4.45 -10.1 2.25 -10.55" fill="none" stroke="#ff3399" stroke-linecap="round" stroke-linejoin="round" stroke-width="2.0"/>
      <path d="M-2.35 10.45 L0.05 10.7 Q4.4 10.7 7.6 7.65 L7.6 7.6 Q10.75 4.45 10.75 0.0 10.75 -4.4 7.6 -7.6 L6.25 -8.75" fill="none" stroke="#cc0066" stroke-linecap="round" stroke-linejoin="round" stroke-width="2.0"/>
      <path d="M2.25 -10.55 L0.05 -10.75 -3.35 -10.25 M-5.05 -9.5 L-6.9 -8.25 M-9.25 -5.45 Q-10.75 -3.05 -10.7 -0.1 L-10.7 0.05 Q-10.75 4.45 -7.6 7.6" fill="none" stroke="#ff99cc" stroke-linecap="round" stroke-linejoin="round" stroke-width="2.0"/>
      <path d="M-3.35 -10.25 L-5.05 -9.5 M-6.9 -8.25 L-7.6 -7.6 -9.25 -5.45" fill="none" stroke="#ffffff" stroke-linecap="round" stroke-linejoin="round" stroke-width="2.0"/>
    </g>
    <g id="shape1" transform="matrix(1.0, 0.0, 0.0, 1.0, 34.65, 8.5)">
      <path d="M-28.15 5.9 Q-30.8 5.9 -32.7 3.4 -34.1 1.65 -34.55 -0.15 -27.7 0.7 -21.85 -0.35 -22.2 1.65 -23.6 3.4 -25.5 5.9 -28.15 5.9" fill="#ffffff" fill-rule="evenodd" stroke="none"/>
      <path d="M-31.5 -8.5 Q-30.25 -8.5 -29.3 -7.6 -28.4 -6.65 -28.4 -5.3 -28.4 -4.0 -29.3 -3.05 -30.25 -2.15 -31.5 -2.15 -32.85 -2.15 -33.75 -3.05 -34.65 -4.0 -34.65 -5.3 -34.65 -6.65 -33.75 -7.6 -32.85 -8.5 -31.5 -8.5 M-32.1 -6.55 Q-32.35 -6.85 -32.65 -6.8 L-33.15 -6.55 -33.4 -5.9 -33.15 -5.25 -32.65 -4.95 -32.1 -5.25 Q-31.85 -5.5 -31.85 -5.9 L-32.1 -6.55 M-22.6 -7.3 Q-21.7 -6.2 -21.7 -4.6 -21.7 -3.0 -22.6 -1.85 -23.55 -0.75 -24.85 -0.75 -26.15 -0.75 -27.05 -1.85 -27.95 -3.0 -27.95 -4.6 -27.95 -6.2 -27.05 -7.3 -26.15 -8.45 -24.85 -8.45 -23.55 -8.45 -22.6 -7.3 M-24.2 -5.75 Q-24.65 -5.8 -24.95 -5.4 L-25.25 -4.35 -24.95 -3.3 -24.2 -2.9 -23.45 -3.3 Q-23.15 -3.75 -23.1 -4.35 -23.15 -5.0 -23.45 -5.4 -23.8 -5.8 -24.2 -5.75" fill="#ffffff" fill-rule="evenodd" stroke="none"/>
    </g>
  </defs>
</svg>
